X:1
T:Ach Schatz, wo bleibt die hülffe
T:Horatio Vecchi
T:Source : Tricinia---Johann-Jacob Gastoldi uns anderer Autorn---Nürnberg---P.Kauffmann---1607. Editor : André Vierendeels (22/03/17).
T:Notes : Original clefs : C1, C1, C4 Editorial accidentals above the staff Text Middle German by Valentin Hauszmann 
T:Ach Schatz, wo bleibt die hülffe
T:©
T:©
C:Horatio Vecchi
Z:©
%%score [ 1 2 3 ]
L:1/8
Q:1/4=122
M:4/4
K:F
V:1 treble nm="Soprano 1" snm="S 1"
V:2 treble nm="Soprano 2" snm="S 2"
V:3 treble-8 nm="Tenor" snm="T"
V:1
"^1)" d8 | d4 c4- | c2 B2 c4 | d4 d2 A2 | A2 B2 c4- | c2 d2 _e4- | e4 d4 | c8- | c4 B4 | A8 | %10
w: Ach|Schatz, wo|_ bleibt die|hül- ffe, dar-|auff ihr mich|_ ver trö-|* stet|habt|_ so|e-|
w: Wie|lang soll|_ ich drauff|ho- ffen? Mit|dem ver- zug|_ macht ihr|_ mich|gar|_ ver-|dros-|
[M:2/4] G4 ::[M:4/4] z2 F2 G2 A2 | DEFG ABcA | d6 B2 | A4 G4 | d4 c4 | B4 A4 | G2 F3 D G2- | %18
w: ben?|Wenn wolt ihr|mir _ _ _ _ _ _ _|_ sie|ge- ben?|Wenn wolt|ihr mir|sie ge- * *|
w: sen,|die zeit ist|je _ _ _ _ _ _ _|_ ver|flos- sen,|die zeit|ist je|ver- flos- * *|
 G2 ^F2 !fermata!G4 :| %19
w: * * ben?|
w: * * sen.|
V:2
"^2)""^1)" B8 | B4 A4- | A2 G2 G4 | ^F4 F2 F2 | ^F2 G2 A4- | A2 GF G4 | A4 B4 | A4 G4 | ^F4 G4- | %9
w: Ach|Schatz, wo|_ bleibt die|hül- ffe, dar-|auff ihr mich|_ ver- * trö-|stet habt|so e-||
w: Habt|ihr was|_ guts im|sin- ne, so|thuts ge- schwind,|_ und _ que-|let nicht|mein Hert-||
 G4 ^F4 |[M:2/4] G4 ::[M:4/4] z8 | d4 c4 | B4 A2 G2 | ^F4 G4 | z2 ^F2 G2 A2 | %16
w: |ben?||Wenn wolt|ihr mir sie|ge- ben?|Wenn wolt ihr|
w: |ze,||mit so|vil pein und|schmer- ze,|mit so vil|
"^-natural" DEFG ABcA | d6 c2 | A4 !fermata!G4 :| %19
w: mir _ _ _ _ _ _ _|_ sie|ge- ben?|
w: pein _ _ _ _ _ _ _|_ und|schmer- ze.|
V:3
"^3)""^1)""^4)" G8 | B4 F4- | F2 G2 _E4 | D4 D2 D2 | D2 G2 F4- | F2 D2 C4- | C4 B,4 | F4 _E4 | %8
w: Ach|Schatz, wo|_ bleibt die|hül- ffe, dar-|auff ihr mich|_ ver- trö-|* stet|habt so|
w: Gebt,|was ihr|_ habt ver-|heis- sen, denn|der bald gibt|_ ein Gab,|_ und|nicht ver-|
 D8- | D8 |[M:2/4] G4 ::[M:4/4] d4 c4 | B4 A4 | G4 d4- | d4 G4 |"^-natural" z2 D2 _E2 F2 | %16
w: e-||ben?|Wenn wolt|ihr mir|sie ge-|* be?|Wenn wolt ihr|
w: ta-||get,|gibt zwey-|mal, als|man sa-|* get,|gibt zwey- mal,|
 B,CDE FGAF | B6 c2 | d4 !fermata!G4 :| %19
w: mir _ _ _ _ _ _ _|_ sie|ge- ben?|
w: als _ _ _ _ _ _ _|_ man|sa- get.|

